material/symbolic/devices/colorimeter-colorhug-symbolic.svg

<?xml version="1.0" encoding="UTF-8"?>
<svg height="16px" viewBox="0 0 16 16" width="16px" xmlns="http://www.w3.org/2000/svg">
    <path d="m 7.296875 -0.0117188 c -0.078125 0 -0.160156 0.0039063 -0.234375 0.0117188 c -0.453125 0.0507812 -0.882812 0.222656 -1.25 0.5 c -0.488281 0.371094 -0.8125 0.957031 -0.8125 1.6875 v 3.8125 h -2.273438 c -0.402343 0 -0.726562 0.324219 -0.726562 0.726562 v 6.546876 c 0 0.402343 0.324219 0.726562 0.726562 0.726562 h 5.546876 c 0.402343 0 0.726562 -0.324219 0.726562 -0.726562 v -6.546876 c 0 -0.402343 -0.324219 -0.726562 -0.726562 -0.726562 h -2.273438 v -3.8125 c 0 -0.449219 0.171875 -0.703125 0.4375 -0.90625 s 0.664062 -0.300781 1.0625 -0.28125 s 0.785156 0.152344 1.0625 0.40625 s 0.46875 0.585938 0.46875 1.125 c 0 2.164062 1.464844 3.507812 3 3.46875 c 0.855469 -0.023438 1.6875 -0.476562 2.25 -1.3125 l -0.5625 -1 c -0.375 0.914062 -1.066406 1.296875 -1.71875 1.3125 c -0.960938 0.023438 -1.96875 -0.730469 -1.96875 -2.46875 c 0 -0.792969 -0.335938 -1.445312 -0.8125 -1.875 s -1.082031 -0.6289062 -1.6875 -0.65625 c -0.074219 -0.00390625 -0.15625 -0.0078125 -0.234375 -0.0117188 z m 6.703125 2.0117188 v 0.125 l 0.78125 1.375 c 0.011719 -0.039062 0.019531 -0.082031 0.03125 -0.125 z m 0 0.34375 c -0.007812 0.105469 -0.019531 0.214844 -0.03125 0.3125 l 0.71875 1.21875 c 0.023438 -0.0625 0.042969 -0.121094 0.0625 -0.1875 z m -0.0625 0.5 c -0.015625 0.089844 -0.042969 0.167969 -0.0625 0.25 l 0.65625 1.125 c 0.03125 -0.0625 0.066406 -0.125 0.09375 -0.1875 z m -0.09375 0.4375 c -0.023438 0.089844 -0.066406 0.167969 -0.09375 0.25 l 0.59375 1.03125 c 0.039062 -0.066406 0.089844 -0.117188 0.125 -0.1875 z m 0 0" fill="#2e3434"/>
</svg>

<svg xmlns="http://www.w3.org/2000/svg" width="16" height="16" version="1.1">
 <path style="fill:#fff0ff" d="M 6,7.0005 V 2.2015 C 6,1.7515 6.17,1.4915 6.44,1.2915 6.7,1.0915 7.1,0.99155 7.5,1.0115 7.9,1.0315 8.28,1.1615 8.56,1.4215 8.84,1.6715 9.03,2.0015 9.03,2.5415 9.03,4.7115 10.5,6.0515 12.03,6.0115 12.89,5.9915 13.72,5.5315 14.28,4.7015 L 13.72,3.7015 C 13.34,4.6115 12.65,4.9915 12,5.0115 11.04,5.0415 10.03,4.2815 10.03,2.5415 10.03,1.7515 9.69,1.1015 9.22,0.67155 8.74,0.24155 8.14,0.04155 7.53,0.01155 7.38,0.00155 7.21,-0.00845 7.06,0.01155 6.61,0.06155 6.18,0.23155 5.81,0.51155 5.32,0.88155 5,1.4615 5,2.2015 V 7.0005 M 14,2.0115 V 2.1315 L 14.78,3.5115 C 14.79,3.4715 14.8,3.4315 14.81,3.3815 Z M 14,2.3515 C 13.99,2.4615 13.98,2.5715 13.97,2.6715 L 14.69,3.8815 14.75,3.7015 Z M 13.94,2.8515 C 13.92,2.9415 13.89,3.0215 13.88,3.1015 L 14.53,4.2315 C 14.56,4.1715 14.6,4.1115 14.63,4.0415 Z M 13.84,3.2915 C 13.82,3.3815 13.78,3.4615 13.75,3.5415 L 14.34,4.5715 C 14.38,4.5115 14.43,4.4515 14.47,4.3815 Z"/>
 <path style="fill:#fff0ff" d="M 2.8,6 H 8.2 C 8.6432,6 9,6.3568 9,6.8 V 13.2 C 9,13.643 8.6432,14 8.2,14 H 2.8 C 2.3568,14 2,13.643 2,13.2 V 6.8 C 2,6.3568 2.3568,6 2.8,6 Z"/>
</svg>
